Papirus/32x32/apps/amazon-store.svg

<svg xmlns="http://www.w3.org/2000/svg" width="32" height="32" version="1">
 <rect fill="#3f5979" width="28" height="28" x="2" y="2" rx="1.4" ry="1.4"/>
 <path fill-rule="evenodd" opacity=".2" d="m17.145 15.876c0 0.84124 0.02154 1.5409-0.38462 2.2862-0.32677 0.60554-0.84616 0.97847-1.4252 0.97847-0.79078 0-1.2499-0.62954-1.2499-1.56 0-1.8363 1.5723-2.1705 3.0603-2.1705v0.46647m2.0769 5.2499c-0.13477 0.12738-0.3317 0.13723-0.48554 0.05292-0.68247-0.59385-0.80555-0.87016-1.1828-1.4376-1.1299 1.2068-1.928 1.5674-3.3945 1.5674-1.7329 0-3.0831-1.1175-3.0831-3.3557 0-1.7477 0.90647-2.9397 2.1945-3.5219 1.1157-0.51447 2.6782-0.60554 3.8726-0.7477v-0.27877c0-0.512 0.03877-1.1175-0.24739-1.56-0.25231-0.39693-0.73293-0.56-1.1563-0.56-0.78585 0-1.4856 0.42093-1.656 1.2936-0.03631 0.19446-0.17046 0.38462-0.35816 0.39446l-1.9976-0.22339c-0.168-0.04062-0.35323-0.18277-0.3077-0.4517 0.46154-2.5286 2.6493-3.2936 4.6056-3.2936 1.0025 0 2.3126 0.27877 3.1016 1.072 1.0025 0.97847 0.90647 2.2837 0.90647 3.7046v3.3557c0 1.0099 0.39877 1.4517 0.77662 1.9976 0.13231 0.19262 0.16123 0.4277-0.0049 0.57231-0.42093 0.37046-1.168 1.048-1.5791 1.4302l-0.0074-0.0074"/>
 <path fill-rule="evenodd" opacity=".2" d="m22.826 21.306c-0.55977 0.0081-1.2212 0.13698-1.7212 0.4976-0.15631 0.11077-0.12966 0.26433 0.04327 0.24279 0.56247-0.07015 1.8199-0.22383 2.0433 0.06971 0.22585 0.29292-0.2499 1.5048-0.45914 2.0457-0.06462 0.16369 0.07235 0.2307 0.21635 0.10577 0.94216-0.80493 1.183-2.4925 0.99041-2.7356-0.09477-0.12154-0.55322-0.23404-1.113-0.22596zm-14.709 0.32452c-0.11677 0.01566-0.16844 0.1605-0.045674 0.27404 2.0877 1.934 4.8487 3.095 7.9127 3.095 2.1871 0 4.7243-0.70708 6.477-2.0289l0.0012-0.0024c0.29108-0.22154 0.04304-0.54806-0.25481-0.42067-1.9619 0.85601-4.0988 1.2668-6.0385 1.2668-2.8776 0-5.666-0.80745-7.9182-2.1515-0.049231-0.02938-0.095693-0.03768-0.13462-0.03245z"/>
 <path fill="#fff" fill-rule="evenodd" d="m17.145 14.874c0 0.84124 0.02154 1.5409-0.38462 2.2862-0.32677 0.60554-0.84616 0.97847-1.4252 0.97847-0.79078 0-1.2499-0.62954-1.2499-1.56 0-1.8363 1.5723-2.1705 3.0603-2.1705v0.46647m2.0769 5.2499c-0.13477 0.12738-0.3317 0.13723-0.48554 0.05292-0.68247-0.59385-0.80555-0.87016-1.1828-1.4376-1.1299 1.2068-1.928 1.5674-3.3945 1.5674-1.7329 0-3.0831-1.1175-3.0831-3.3557 0-1.7477 0.90647-2.9397 2.1945-3.5219 1.1157-0.51447 2.6782-0.60554 3.8726-0.7477v-0.27877c0-0.512 0.03877-1.1175-0.24739-1.56-0.25231-0.39693-0.73293-0.56-1.1563-0.56-0.78585 0-1.4856 0.42093-1.656 1.2936-0.03631 0.19446-0.17046 0.38462-0.35816 0.39446l-1.9976-0.22339c-0.168-0.04062-0.35323-0.18277-0.3077-0.4517 0.46154-2.5286 2.6493-3.2936 4.6056-3.2936 1.0025 0 2.3126 0.27877 3.1016 1.072 1.0025 0.97847 0.90647 2.2837 0.90647 3.7046v3.3557c0 1.0099 0.39877 1.4517 0.77662 1.9976 0.13231 0.19262 0.16123 0.4277-0.0049 0.57231-0.42093 0.37046-1.168 1.048-1.5791 1.4302l-0.0074-0.0074"/>
 <path fill="#f90" fill-rule="evenodd" d="m22.826 20.304c-0.55977 0.0081-1.2212 0.13698-1.7212 0.4976-0.15631 0.11077-0.12966 0.26433 0.04327 0.24279 0.56247-0.07015 1.8199-0.22383 2.0433 0.06971 0.22585 0.29292-0.2499 1.5048-0.45914 2.0457-0.06462 0.16369 0.07235 0.2307 0.21635 0.10577 0.94216-0.80493 1.183-2.4925 0.99041-2.7356-0.09477-0.12154-0.55322-0.23404-1.113-0.22596zm-14.709 0.32452c-0.11677 0.01566-0.16844 0.1605-0.045674 0.27404 2.088 1.9348 4.8487 3.0954 7.9133 3.0954 2.1871 0 4.7243-0.70708 6.477-2.0289l0.0012-0.0024c0.29108-0.22154 0.04304-0.54806-0.25481-0.42067-1.9619 0.85601-4.0988 1.2668-6.0385 1.2668-2.8776 0-5.666-0.80745-7.9182-2.1515-0.049231-0.02939-0.095693-0.03768-0.13462-0.03245z"/>
 <path opacity=".2" d="m2 28.6v1c0 0.775 0.6248 1.4 1.4004 1.4h25.2c0.775 0 1.4-0.625 1.4-1.4v-1c0 0.775-0.625 1.4-1.4 1.4h-25.2c-0.7752 0-1.4-0.625-1.4-1.4z"/>
 <path fill="#fff" opacity=".1" d="m3.4004 2c-0.7756 0-1.4004 0.6248-1.4004 1.4004v1c0-0.7756 0.6248-1.4004 1.4004-1.4004h25.2c0.775 0 1.4 0.6248 1.4 1.4004v-1c0-0.7756-0.625-1.4004-1.4-1.4004h-25.2z"/>
</svg>

<svg xmlns="http://www.w3.org/2000/svg" width="32" height="32" version="1">
 <rect style="opacity:0.2" width="28" height="28" x="2" y="3" rx="1.4" ry="1.4"/>
 <rect fill="#3f5979" width="28" height="28" x="2" y="2" rx="1.4" ry="1.4"/>
 <path fill="#fff" opacity=".1" d="m3.4004 2c-0.7756 0-1.4004 0.6248-1.4004 1.4004v1c0-0.7756 0.6248-1.4004 1.4004-1.4004h25.2c0.775 0 1.4 0.6248 1.4 1.4004v-1c0-0.7756-0.625-1.4004-1.4-1.4004h-25.2z"/>
 <path style="fill-rule:evenodd;opacity:0.2" d="M 17.145,15.874 C 17.145,16.715 17.167,17.415 16.76,18.16 16.434,18.766 15.914,19.139 15.335,19.139 14.544,19.139 14.085,18.509 14.085,17.579 14.085,15.742 15.658,15.408 17.146,15.408 V 15.875 M 19.222,21.125 C 19.088,21.252 18.891,21.262 18.737,21.177 18.054,20.584 17.931,20.307 17.554,19.74 16.424,20.947 15.626,21.307 14.16,21.307 12.427,21.307 11.077,20.19 11.077,17.952 11.077,16.204 11.983,15.012 13.271,14.43 14.387,13.915 15.949,13.824 17.144,13.682 V 13.403 C 17.144,12.891 17.182,12.286 16.896,11.843 16.644,11.446 16.163,11.283 15.74,11.283 14.954,11.283 14.254,11.704 14.084,12.577 14.048,12.771 13.913,12.961 13.726,12.971 L 11.728,12.748 C 11.56,12.707 11.375,12.565 11.42,12.296 11.882,9.768 14.07,9.003 16.026,9.003 17.029,9.003 18.339,9.2817 19.128,10.075 20.13,11.053 20.034,12.358 20.034,13.779 V 17.135 C 20.034,18.145 20.433,18.587 20.811,19.132 20.943,19.325 20.972,19.56 20.806,19.705 20.385,20.075 19.638,20.753 19.227,21.135 L 19.219,21.128"/>
 <path style="fill:#ffffff;fill-rule:evenodd" d="M 17.145,14.874 C 17.145,15.715 17.167,16.415 16.76,17.16 16.434,17.766 15.914,18.139 15.335,18.139 14.544,18.139 14.085,17.509 14.085,16.579 14.085,14.742 15.658,14.408 17.146,14.408 V 14.875 M 19.222,20.125 C 19.088,20.252 18.891,20.262 18.737,20.177 18.054,19.584 17.931,19.307 17.554,18.74 16.424,19.947 15.626,20.307 14.16,20.307 12.427,20.307 11.077,19.19 11.077,16.952 11.077,15.204 11.983,14.012 13.271,13.43 14.387,12.915 15.949,12.824 17.144,12.682 V 12.403 C 17.144,11.891 17.182,11.286 16.896,10.843 16.644,10.446 16.163,10.283 15.74,10.283 14.954,10.283 14.254,10.704 14.084,11.577 14.048,11.771 13.913,11.961 13.726,11.971 L 11.728,11.748 C 11.56,11.707 11.375,11.565 11.42,11.296 11.882,8.768 14.07,8.003 16.026,8.003 17.029,8.003 18.339,8.2817 19.128,9.075 20.13,10.053 20.034,11.358 20.034,12.779 V 16.135 C 20.034,17.145 20.433,17.587 20.811,18.132 20.943,18.325 20.972,18.56 20.806,18.705 20.385,19.075 19.638,19.753 19.227,20.135 L 19.219,20.128"/>
 <path style="opacity:0.2" d="M 22.826,21.304 C 22.266,21.312 21.605,21.441 21.105,21.802 20.948,21.912 20.975,22.066 21.148,22.044 21.711,21.974 22.968,21.821 23.191,22.114 23.417,22.407 22.941,23.619 22.732,24.16 22.668,24.323 22.805,24.39 22.949,24.266 23.891,23.461 24.132,21.773 23.939,21.53 23.844,21.408 23.386,21.296 22.826,21.304 Z M 8.117,21.629 C 8.0002,21.644 7.9486,21.789 8.0713,21.903 10.159,23.837 12.92,24.998 15.985,24.998 18.172,24.998 20.709,24.291 22.462,22.969 L 22.463,22.967 C 22.754,22.745 22.506,22.419 22.208,22.546 20.246,23.402 18.109,23.813 16.17,23.813 13.292,23.813 10.504,23.005 8.2513,21.661 8.2021,21.632 8.1556,21.624 8.1167,21.629 Z"/>
 <path style="fill:#ff9900" d="M 22.826,20.304 C 22.266,20.312 21.605,20.441 21.105,20.802 20.948,20.912 20.975,21.066 21.148,21.044 21.711,20.974 22.968,20.821 23.191,21.114 23.417,21.407 22.941,22.619 22.732,23.16 22.668,23.323 22.805,23.39 22.949,23.266 23.891,22.461 24.132,20.773 23.939,20.53 23.844,20.408 23.386,20.296 22.826,20.304 Z M 8.117,20.629 C 8.0002,20.644 7.9486,20.789 8.0713,20.903 10.159,22.837 12.92,23.998 15.985,23.998 18.172,23.998 20.709,23.291 22.462,21.969 L 22.463,21.967 C 22.754,21.745 22.506,21.419 22.208,21.546 20.246,22.402 18.109,22.813 16.17,22.813 13.292,22.813 10.504,22.005 8.2513,20.661 8.2021,20.632 8.1556,20.624 8.1167,20.629 Z"/>
</svg>
